svg/ups_outline.svg

<svg width="24" height="24" viewBox="0 0 24 24"  xmlns="http://www.w3.org/2000/svg">
<path d="M9.53301 10.5V13.4973C9.53301 14.1338 9.33613 14.6273 8.94238 14.9777C8.55104 15.3259 7.98577 15.5 7.24657 15.5C6.52429 15.5 5.96868 15.3303 5.57976 14.991C5.19325 14.6517 5 14.1638 5 13.5273V10.5H6.43853V13.4242C6.43853 13.7679 6.50859 14.0174 6.6487 14.1727C6.7888 14.3279 6.99534 14.4055 7.26832 14.4055C7.56061 14.4055 7.77198 14.329 7.90243 14.176C8.03529 14.0207 8.10172 13.7679 8.10172 13.4175V10.5H9.53301Z" />
<path d="M14.5 12.0469C14.5 12.5903 14.3249 13.0105 13.9746 13.3077C13.6267 13.6027 13.1315 13.7502 12.489 13.7502H12.0867V15.5H10.6555V10.5H12.489C13.1581 10.5 13.6606 10.6342 13.9963 10.9025C14.3321 11.1709 14.5 11.5523 14.5 12.0469ZM12.0867 12.679H12.3476C12.5626 12.679 12.7329 12.6235 12.8586 12.5126C12.9866 12.4018 13.0506 12.2487 13.0506 12.0536C13.0506 11.7253 12.8525 11.5612 12.4563 11.5612H12.0867V12.679Z" />
<path d="M19 13.9564C19 14.258 18.9167 14.5264 18.75 14.7615C18.5833 14.9943 18.3429 15.1762 18.0289 15.3071C17.7149 15.4357 17.3465 15.5 16.9237 15.5C16.571 15.5 16.2751 15.4778 16.036 15.4335C15.7968 15.3869 15.548 15.3071 15.2895 15.1939V14.023C15.5625 14.1516 15.8463 14.2525 16.1411 14.3257C16.4358 14.3967 16.7063 14.4321 16.9527 14.4321C17.1653 14.4321 17.3211 14.3989 17.4202 14.3323C17.5192 14.2636 17.5687 14.176 17.5687 14.0695C17.5687 14.003 17.5482 13.9453 17.5071 13.8965C17.4685 13.8455 17.4045 13.7945 17.3151 13.7435C17.2281 13.6925 16.9938 13.5883 16.6121 13.4308C16.2667 13.2866 16.007 13.1469 15.8331 13.0116C15.6615 12.8764 15.5335 12.7211 15.449 12.5459C15.3668 12.3707 15.3258 12.1633 15.3258 11.9238C15.3258 11.4758 15.5033 11.1265 15.8584 10.8759C16.2135 10.6253 16.7015 10.5 17.3223 10.5C17.8707 10.5 18.4299 10.6164 19 10.8493L18.5616 11.8639C18.0663 11.6555 17.6388 11.5512 17.2788 11.5512C17.0928 11.5512 16.9576 11.5812 16.873 11.6411C16.7885 11.7009 16.7462 11.7752 16.7462 11.8639C16.7462 11.9593 16.7993 12.0447 16.9056 12.1201C17.0143 12.1955 17.3066 12.333 17.7825 12.5326C18.2391 12.7211 18.5555 12.924 18.7319 13.1414C18.9106 13.3565 19 13.6282 19 13.9564Z" />
<path fill-rule="evenodd" clip-rule="evenodd" d="M18 4.8C18 4.51997 18 4.37996 17.9455 4.273C17.8976 4.17892 17.8211 4.10243 17.727 4.0545C17.62 4 17.48 4 17.2 4H14.8C14.52 4 14.38 4 14.273 4.0545C14.1789 4.10243 14.1024 4.17892 14.0545 4.273C14 4.37996 14 4.51997 14 4.8V6H10V4.8C10 4.51997 10 4.37996 9.9455 4.273C9.89757 4.17892 9.82108 4.10243 9.727 4.0545C9.62004 4 9.48003 4 9.2 4H6.8C6.51997 4 6.37996 4 6.273 4.0545C6.17892 4.10243 6.10243 4.17892 6.0545 4.273C6 4.37996 6 4.51997 6 4.8V6H4C2.89 6 2 6.89 2 8V18C2 19.11 2.89 20 4 20H20C21.11 20 22 19.11 22 18L21.99 8C21.99 6.89 21.11 6 20 6H18V4.8ZM20 8H4V18H20V8Z" />
</svg>

<svg width="24" height="24" viewBox="0 0 24 24" xmlns="http://www.w3.org/2000/svg"><path d="M9.533 10.5v2.997c0 .637-.197 1.13-.59 1.48-.392.349-.957.523-1.696.523-.723 0-1.278-.17-1.667-.509-.387-.34-.58-.827-.58-1.464V10.5h1.439v2.924c0 .344.07.593.21.749.14.155.346.232.62.232.292 0 .503-.076.633-.229.133-.155.2-.408.2-.758V10.5h1.431zM14.5 12.047c0 .543-.175.963-.525 1.26-.348.296-.843.443-1.486.443h-.402v1.75h-1.431v-5h1.833c.67 0 1.172.134 1.507.402.336.269.504.65.504 1.145zm-2.413.632h.26c.216 0 .386-.056.512-.166a.575.575 0 0 0 .192-.46c0-.328-.199-.492-.595-.492h-.37v1.118zM19 13.956c0 .302-.083.57-.25.806a1.63 1.63 0 0 1-.721.545 2.904 2.904 0 0 1-1.105.193c-.353 0-.649-.022-.888-.066a3.568 3.568 0 0 1-.747-.24v-1.171c.274.129.557.23.852.303.295.07.565.106.812.106.212 0 .368-.033.467-.1.1-.068.149-.156.149-.263a.26.26 0 0 0-.062-.173.631.631 0 0 0-.192-.153 7.974 7.974 0 0 0-.703-.312c-.345-.144-.605-.284-.779-.42-.171-.135-.3-.29-.384-.465a1.453 1.453 0 0 1-.123-.622c0-.448.177-.797.532-1.048.355-.25.843-.376 1.464-.376.549 0 1.108.116 1.678.35l-.438 1.014c-.496-.209-.923-.313-1.283-.313-.186 0-.321.03-.406.09-.085.06-.127.134-.127.223 0 .095.053.18.16.256.108.075.4.213.877.413.456.188.772.391.949.608.179.216.268.487.268.815z"/><path fill-rule="evenodd" clip-rule="evenodd" d="M18 4.8c0-.28 0-.42-.055-.527a.5.5 0 0 0-.218-.218C17.62 4 17.48 4 17.2 4h-2.4c-.28 0-.42 0-.527.054a.5.5 0 0 0-.218.219C14 4.38 14 4.52 14 4.8V6h-4V4.8c0-.28 0-.42-.055-.527a.5.5 0 0 0-.218-.218C9.62 4 9.48 4 9.2 4H6.8c-.28 0-.42 0-.527.054a.5.5 0 0 0-.218.219C6 4.38 6 4.52 6 4.8V6H4c-1.11 0-2 .89-2 2v10c0 1.11.89 2 2 2h16c1.11 0 2-.89 2-2l-.01-10c0-1.11-.88-2-1.99-2h-2V4.8zM20 8H4v10h16V8z"/></svg>
